X: 3
T: The Boy In The Gap
R: reel
M: 4/4
L: 1/8
K: Dmix
|:D2FA dedc|(3AcA GE (3AcA GE|D2FA dedc|(3AcA GE E2 GE|
D2FA dedc|(3AcA GE cEGE|D2FA dedc|A2GE ED D2:||
|:(3fgf fe fedf|egfd edd^c|AB^cd eaag |eaag fdde|
(3fgf fe fedf|egfd edd^c|AB^cd efd^c|A2GE EDD2:||
|:df f2 df f2|ce e2 ge e2 |df f2 dfaf |g2 ag fdde |
(3fgf eg fdAF |G2 BG EFGE |D2 FA dedc |(3AcA GE ED D2:||


Tune 1579	Setting 24151

